X: 24768
T: Maeve's
R: reel
M: 4/4
K: Gmajor
|:d2^ce dBAB|~B2AG GEDB,|G,A,B,D GB~B2|egag edBd|
gfga bgeg|gedB AE~E2|DEGB dg~g2|ecAF GABc:|
|:dggf g2ag|bgfg edBd|DEGB BABd|
[1 gafg edBg|gfga bgeg|gedB AE~E2|DEGB dg~g2|ecAF GABc:|
[2 ~g3f edBg|gfga bgeg|gedB AE~E2|DEGB dg~g2|ecAF GABc||

